public/wifi.svg

<svg width="149" height="105" viewBox="0 0 149 105" fill="none" xmlns="http://www.w3.org/2000/svg">
<path d="M0 30.7354L13.5455 44.2381C47.2059 10.684 101.794 10.684 135.455 44.2381L149 30.7354C107.89 -10.2451 41.1782 -10.2451 0 30.7354ZM54.1818 84.746L74.5 105L94.8182 84.746C83.6432 73.5388 65.4245 73.5388 54.1818 84.746ZM27.0909 57.7407L40.6364 71.2434C59.3291 52.6097 89.6709 52.6097 108.364 71.2434L121.909 57.7407C95.7664 31.6806 53.3014 31.6806 27.0909 57.7407Z" fill="white"/>
</svg>

<svg width="149" height="105" viewBox="0 0 149 105" fill="none" xmlns="http://www.w3.org/2000/svg"><path d="m0 30.735 13.546 13.503c33.66-33.554 88.248-33.554 121.909 0L149 30.735c-41.11-40.98-107.822-40.98-149 0m54.182 54.011L74.5 105l20.318-20.254c-11.175-11.207-29.394-11.207-40.636 0M27.09 57.741l13.545 13.502c18.693-18.633 49.035-18.633 67.728 0l13.545-13.502c-26.143-26.06-68.608-26.06-94.818 0" fill="#fff"/></svg>
